X:1
T:Title
%%score [ ( 1 2 ) ( 3 4 ) ] { ( 5 6 ) | 7 }
L:1/8
Q:1/4=120
M:4/4
K:G
V:1 treble nm="Midi_74"
V:2 treble 
V:3 bass nm="Midi_74"
V:4 bass 
V:5 treble nm="Org."
V:6 treble 
V:7 bass 
V:1
"^Recte et Retro." B8 | c4 A4 | d8 || G8 | F4 A4 | d4 B4 | A8 || d8 | A4 c4 | B8 || A8 | B4 d4 | %12
"^William Henry Havergal\n(1793-1870)" A4 F4 | G8 |] %14
V:2
 G8 | G4 F4 | G8 || D8 | D4 (E2 A2) | G4 G4 | F8 || G8 | F4 G4 | G8 || F8 | G4 G4 | (A2 E2) D4 | %13
 D8 |] %14
V:3
 D8 | E4 D4 | D8 || B,8 | A,4 C4 | D4 D4 | D8 || D8 | D4 E4 | D8 || D8 | D4 D4 | C4 A,4 | B,8 |] %14
V:4
 G,8 | C,4 D,4 | B,,8 || G,,8 | D,4 C,4 | B,,4 G,,4 | D,8 || B,,8 | D,4 C,4 | G,8 || D,8 | %11
 G,,4 B,,4 | C,4 D,4 | G,,8 |] %14
V:5
 B8 | c4 A4 | d8 || G8 | F4 A4 | d4 B4 | A8 || d8 | A4 c4 | B8 || A8 | B4 d4 | A4 F4 | G8 |] %14
V:6
 [DG]8 | [EG]4 [DF]4 | [DG]8 || [B,D]8 | [A,D]4 [CE]4 | [DG]4 [DG]4 | [DF]8 || [DG]8 | %8
 [DF]4 [EG]4 | [DG]8 || [DF]8 | [DG]4 [DG]4 | [CE]4 [A,D]4 | [B,D]8 |] %14
V:7
 G,8 | C,4 D,4 | B,,8 || G,,8 | D,4 C,4 | B,,4 G,,4 | D,8 || B,,8 | D,4 C,4 | G,8 || D,8 | %11
 G,,4 B,,4 | C,4 D,4 | G,,8 |] %14

